X: 11
T: Dutchess of Devonshires Reel    [G]
O: 1779
R: reel
S: Image from Darlene Wigton, June 2017
Z: 2017 John Chambers <jc:trillian.mit.edu>
M: C|
L: 1/16
K: G
% - - - - - - - - - - - - - - - - - - - - - - - - - - - - -
V: 1 brace=2 staves=2	% Formatted for proofreading on my screen.
|:\
"G"G4 "D7"(ABcA) "G"B2G2"(D7)"d2B2 | "G"G4 "D7"(ABcA) "G"B6d2 |\
"G"G4 "D7"(ABcA) "G"B2G2d2B2 | "(Em)"(g2e2)"A7"(d2^c2) "D"d4d4 :|
|:\
"D7"D4 FDEF "G"GABc d2d2 | "D7"D4 (FDEF) "G"(GABc) d4 |\
"D7"D4 (FDEF) "G"(GABc) d2g2 | "D"(defg) a2f2 "A7"A2^c2 "D"d4 :|
|:\
"G"d4 (BcdB) "D7"c2A2"G"B2G2 | "G"d4 (BcdB) "D7"c4 A4 |\
"G"d4 (BcdB) "D7"c2A2"G"B2G2 | "C"E2A2"D7"G2F2 "G"G4G4 :| [a4D4]
% - - - - - - - - - - - - - - - - - - - - - - - - - - - - -
V: 2 clef=bass middle=d	% Preserves the book's staff layout
|:\
G2g2f2d2 g4 f4 | B2G2 d4 g2d2G2z2 |\
G2g2f2d2 g4G4 | g4a4 d2A2D4 :|\
|:\
d4 D2d2 B4 G4 | d4 D2d2 (gabc') d'4 |
d4 D2d2 B4 G4 | (defg) a4 A4 d4 :|\
|:\
g4 b2g2 a2f2 g4 | g4b2g2 d8 |\
g4 b2g2 a2f2 g4 | c'4d'4 g8 :| [d'4D4]
% - - - - - - - - - - - - - - - - - - - - - - - - - - - - -
%%begintext align
%%   The first & second Cu. foot it and half Right and Left .|
%% foot it and half Right & Left back again :|
%% cross over two Cu. :|.
%% lead up to the top foot it & cast off :|:
%% cross corners half round (the Gent.n going to the bottom the Lady to the top)
%% meet in the middle & turn .||
%% cross corners the contrary way the Lady going to the bottom
%% the Gent.n to the top meet and turn .||.
%%endtext

%%sep 1 1 500

